!!!!SEGMENT: Lps2012-In_te_Domine_speravi.krn
!!!id: Lps2012
!!!AGN: Motet
!!!voices: 5
!!!COM: Lupus Hellinck
!!!OTL: In te Domine speravi
**kern	**text	**kern	**text	**kern	**text	**kern	**text	**kern	**text
*part5	*part5	*part4	*part4	*part3	*part3	*part2	*part2	*part1	*part1
*staff5	*staff5	*staff4	*staff4	*staff3	*staff3	*staff2	*staff2	*staff1	*staff1
*I"Bassus	*	*I"Tenor II	*	*I"Tenor I	*	*I"Altus	*	*I"Superius	*
*I'B	*	*I'T. II	*	*I'T. I	*	*I'A	*	*I'S	*
*clefF4	*	*clefGv2	*	*clefGv2	*	*clefG2	*	*clefG2	*
*k[]	*	*k[]	*	*k[]	*	*k[]	*	*k[]	*
*C:	*	*C:	*	*C:	*	*C:	*	*C:	*
*M2/1	*	*M2/1	*	*M2/1	*	*M2/1	*	*M2/1	*
*met(C|)	*	*met(C|)	*	*met(C|)	*	*met(C|)	*	*met(C|)	*
!!section: Prima pars: In te Domine speravi
!!!OMD: Prima pars: In te Domine speravi
=1	=1	=1	=1	=1	=1	=1	=1	=1	=1
0r	.	1f	In	0r	.	0r	.	0r	.
.	.	2f	te	.	.	.	.	.	.
.	.	[2f	do-	.	.	.	.	.	.
=2	=2	=2	=2	=2	=2	=2	=2	=2	=2
0r	.	2f]	.	0r	.	0r	.	0r	.
.	.	2f	-mi-	.	.	.	.	.	.
.	.	2e	-ne	.	.	.	.	.	.
.	.	2d	spe-	.	.	.	.	.	.
=3	=3	=3	=3	=3	=3	=3	=3	=3	=3
0r	.	1f	-ra-	0r	.	0r	.	1cc	In
.	.	1c	-vi	.	.	.	.	2cc	te
.	.	.	.	.	.	.	.	[2cc	do-
=4	=4	=4	=4	=4	=4	=4	=4	=4	=4
0r	.	2r	.	0r	.	0r	.	2cc]	.
.	.	2c	non	.	.	.	.	2cc	-mi-
.	.	2d	con-	.	.	.	.	2b	-ne
.	.	[2f	-fun-	.	.	.	.	2a	spe-
=5	=5	=5	=5	=5	=5	=5	=5	=5	=5
0r	.	4f]	.	0r	.	0r	.	1cc	-ra-
.	.	4e	.	.	.	.	.	.	.
.	.	4c	-dar	.	.	.	.	.	.
.	.	4d	.	.	.	.	.	.	.
.	.	4e	.	.	.	.	.	1g	-vi
.	.	4f	.	.	.	.	.	.	.
.	.	[2e	in	.	.	.	.	.	.
=6	=6	=6	=6	=6	=6	=6	=6	=6	=6
0r	.	4e]	.	1c	In	0r	.	2r	.
.	.	4d	.	.	.	.	.	.	.
.	.	4c	.	.	.	.	.	2g	non
.	.	4B	.	.	.	.	.	.	.
.	.	2.A	e-	2c	te	.	.	2a	con-
.	.	.	.	[2c	do-	.	.	[2cc	-fun-
.	.	4B	.	.	.	.	.	.	.
=7	=7	=7	=7	=7	=7	=7	=7	=7	=7
0r	.	4c	.	2c]	.	0r	.	4cc]	.
.	.	4d	.	.	.	.	.	4b	.
.	.	4e	.	2c	-mi-	.	.	4g	.
.	.	4f	.	.	.	.	.	4a	.
.	.	2g	-ter-	2B	-ne	.	.	2b	-dar
.	.	2c	-num,	2A	spe-	.	.	2cc	in
=8	=8	=8	=8	=8	=8	=8	=8	=8	=8
0r	.	2.e	in	1c	-ra-	0r	.	2g	e-
.	.	.	.	.	.	.	.	1cc	-ter-
.	.	4f	e-	.	.	.	.	.	.
.	.	1d	-ter-	1G	-vi	.	.	.	.
.	.	.	.	.	.	.	.	2b	.
=9	=9	=9	=9	=9	=9	=9	=9	=9	=9
1F	In	1c	-num,	2r	.	0r	.	2.cc	.
.	.	.	.	2c	non	.	.	.	.
.	.	.	.	.	.	.	.	4b	.
2F	te	1r	.	2d	con-	.	.	4a	.
.	.	.	.	.	.	.	.	4g	.
[2F	do-	.	.	[2f	-fun-	.	.	[2a	.
=10	=10	=10	=10	=10	=10	=10	=10	=10	=10
2F]	.	0r	.	4f]	.	0r	.	4a]	.
.	.	.	.	4e	.	.	.	4g	.
2F	-mi-	.	.	4c	.	.	.	4a	.
.	.	.	.	4d	.	.	.	4f	.
2E	-ne	.	.	2e	-dar	.	.	2g	.
2D	spe-	.	.	2f	in	.	.	[2a	.
=11	=11	=11	=11	=11	=11	=11	=11	=11	=11
1F	-ra-	0r	.	2c	e-	1cc	In	2a]	.
.	.	.	.	1f	-ter-	.	.	4g	.
.	.	.	.	.	.	.	.	4f	.
1C	-vi,	.	.	.	.	2cc	te	1g	.
.	.	.	.	2e	.	[2cc	do-	.	.
=12	=12	=12	=12	=12	=12	=12	=12	=12	=12
0r	.	2r	.	2f	-num,	2cc]	.	1a	-num,
.	.	2c	non	2A	in	2cc	-mi-	.	.
.	.	2d	con-	2G	e-	2b	-ne	1r	.
.	.	[2f	-fun-	2F	.	2a	spe-	.	.
=13	=13	=13	=13	=13	=13	=13	=13	=13	=13
0r	.	4f]	.	2.A	-ter-	1cc	-ra-	0r	.
.	.	4e	.	.	.	.	.	.	.
.	.	4c	-dar	.	.	.	.	.	.
.	.	4d	.	4B	.	.	.	.	.
.	.	4e	.	[1c	-num,	1g	-vi	.	.
.	.	4f	.	.	.	.	.	.	.
.	.	[2e	in	.	.	.	.	.	.
=14	=14	=14	=14	=14	=14	=14	=14	=14	=14
1c	in	4e]	.	1c]	.	2r	.	1r	.
.	.	4d	.	.	.	.	.	.	.
.	.	4c	.	.	.	2g	non	.	.
.	.	4B	.	.	.	.	.	.	.
2c	te	2.A	e-	1r	.	2a	con-	2r	.
[2c	do-	.	.	.	.	[2cc	-fun-	[2ee	non
.	.	4B	.	.	.	.	.	.	.
=15	=15	=15	=15	=15	=15	=15	=15	=15	=15
2c]	.	4c	.	0r	.	4cc]	.	2ee]	.
.	.	4d	.	.	.	4b	.	.	.
2c	-mi-	4e	.	.	.	4g	.	2ee	con-
.	.	4f	.	.	.	4a	.	.	.
2B	-ne	2g	-ter-	.	.	2b	-dar	2dd	-fun-
2A	spe-	2c	.	.	.	2cc	in	[2ee	.
=16	=16	=16	=16	=16	=16	=16	=16	=16	=16
1c	-ra-	1e	-num,	1r	.	2g	e-	2ee]	.
.	.	.	.	.	.	1cc	-ter-	2cc	.
1G	-vi	2d	in	2r	.	.	.	1dd	-dar
.	.	2g	e-	2G	in	2b	.	.	.
=17	=17	=17	=17	=17	=17	=17	=17	=17	=17
1r	.	2f	-ter-	2A	e-	1cc	-num;	2r	.
.	.	2e	.	1c	-ter-	.	.	2g	in
2r	.	1d	.	.	.	1r	.	2a	e-
2G	non	.	.	2B	.	.	.	2b	.
=18	=18	=18	=18	=18	=18	=18	=18	=18	=18
2A	con-	2c	-num,	1c	-num	2r	.	2.e	-ter-
1c	-fun-	2.e	in	.	.	2.g	in	.	.
.	.	.	.	.	.	.	.	4f	.
.	.	.	.	1r	.	.	.	[1g	-num
.	.	4d	.	.	.	4a	.	.	.
2G	-dar	[2g	e-	.	.	4b	.	.	.
.	.	.	.	.	.	4cc	.	.	.
=19	=19	=19	=19	=19	=19	=19	=19	=19	=19
2B	in	4g]	.	1r	.	2dd	e-	1g]	.
.	.	4f	.	.	.	.	.	.	.
2c	e-	2e	.	.	.	1cc	-ter-	.	.
1G	-ter-	1d	-ter-	2r	.	.	.	2r	.
.	.	.	.	[2g	in	2b	.	2dd	in
=20	=20	=20	=20	=20	=20	=20	=20	=20	=20
1C	-num	1c	-num	2g]	.	[0cc	-num	1ee	ius-
.	.	.	.	2g	ius-	.	.	.	.
2r	.	1r	.	2f	-ti-	.	.	2ff	-ti-
[2c	in	.	.	2g	-ti-	.	.	[2ee	-ti-
=21	=21	=21	=21	=21	=21	=21	=21	=21	=21
2c]	.	2r	.	2.e	-a	1cc]	.	2ee]	.
2c	ius-	1g	in	.	.	.	.	4dd	.
.	.	.	.	4f	tu-	.	.	4cc	.
2B	-ti-	.	.	1g	-a,	1r	.	2dd	-a
2c	-ti-	2g	ius-	.	.	.	.	[2cc	tu-
=22	=22	=22	=22	=22	=22	=22	=22	=22	=22
2A	-a	2f	-ti-	2r	.	1r	.	2cc]	.
2B	tu-	2g	-ti-	1g	in	.	.	2b	.
1c	-a	1e	-a,	.	.	2r	.	2g	-a
.	.	.	.	2g	ius-	[2cc	in	2ee	li-
=23	=23	=23	=23	=23	=23	=23	=23	=23	=23
0r	.	2r	.	2f	-ti-	2cc]	.	2ff	-be-
.	.	1g	in	2c	-ti-	2cc	ius-	1ee	.
.	.	.	.	2e	-a	2b	-ti-	.	.
.	.	2g	ius-	2e	tu-	2cc	-ti-	4dd	-ra
.	.	.	.	.	.	.	.	4cc	.
=24	=24	=24	=24	=24	=24	=24	=24	=24	=24
2r	.	2f	-ti-	1d	-a	2a	-a	1dd	me,
2G	li-	2g	-ti-	.	.	2b	tu-	.	.
2A	-be-	2.e	-a	2r	.	1cc	-a	1r	.
[2c	-ra	.	.	[2e	li-	.	.	.	.
.	.	4f	tu-	.	.	.	.	.	.
=25	=25	=25	=25	=25	=25	=25	=25	=25	=25
2c]	.	1g	-a	2e]	.	0r	.	2r	.
2B	.	.	.	2d	.	.	.	2g	li-
1A	me,	2r	.	2e	-be-	.	.	2a	-be-
.	.	2c	li-	2f	-ra	.	.	[2cc	-ra
=26	=26	=26	=26	=26	=26	=26	=26	=26	=26
1G	li-	2d	-be-	1g	me,	1r	.	2cc]	.
.	.	2e	-ra	.	.	.	.	2b	me
2F	-be-	2f	me,	2r	.	2r	.	2a	[li-
2E	-ra	2r	.	2G	li-	2cc	li-	[2g	-be-
=27	=27	=27	=27	=27	=27	=27	=27	=27	=27
1D	me,	2r	.	2A	-be-	2dd	-be-	2g]	.
.	.	2d	li-	2B	-ra	1ff	-ra	2f	-ra
1C	.	2e	-be-	1c	me	.	.	[1g	me]
.	.	[2g	-ra	.	.	2ee	me	.	.
=28	=28	=28	=28	=28	=28	=28	=28	=28	=28
1r	.	4g]	.	2B	do-	2dd	do-	0g]	.
.	.	4f	.	.	.	.	.	.	.
.	.	2e	me	2c	-mi-	1cc	-mi-	.	.
2r	.	1d	do-	2G	-ne,	.	.	.	.
2G	li-	.	.	2g	li-	2b	.	.	.
=29	=29	=29	=29	=29	=29	=29	=29	=29	=29
2A	-be-	2.c	-mi-	2f	-be-	1cc	-ne,	1r	.
1c	-ra	.	.	1e	-ra	.	.	.	.
.	.	8BL	.	.	.	.	.	.	.
.	.	8AJ	.	.	.	.	.	.	.
.	.	1G	-ne,	.	.	1r	.	2r	.
2B	.	.	.	2d	me	.	.	2g	li-
=30	=30	=30	=30	=30	=30	=30	=30	=30	=30
1A	.	2r	.	2e	do-	0r	.	2a	-be-
.	.	2c	li-	2f	-mi-	.	.	1cc	-ra
1G	me	2d	-be-	1g	-ne,	.	.	.	.
.	.	2e	-ra	.	.	.	.	2b	me,
=31	=31	=31	=31	=31	=31	=31	=31	=31	=31
2F	do-	2f	me,	2r	.	0r	.	2a	li-
2E	.	2G	li-	2c	li-	.	.	1g	-be-
1D	-mi-	2A	-be-	2d	-be-	.	.	.	.
.	.	2B	-ra	[2f	-ra	.	.	2f	-ra
=32	=32	=32	=32	=32	=32	=32	=32	=32	=32
1C	-ne,	1c	me,	2f]	.	2r	.	1g	me
.	.	.	.	2e	.	2g	li-	.	.
2F	li-	1r	.	2d	.	2a	-be-	1r	.
2A	-be-	.	.	2c	me	[2cc	-ra	.	.
=33	=33	=33	=33	=33	=33	=33	=33	=33	=33
1G	-ra	2r	.	1d	do-	2cc]	.	0r	.
.	.	2d	li-	.	.	2b	me	.	.
2C	me	2e	-be-	2c	.	2a	do-	.	.
2E	do-	2c	-ra	2G	.	[2g	-mi-	.	.
=34	=34	=34	=34	=34	=34	=34	=34	=34	=34
1D	-mi-	0d	me	1A	-mi-	2g]	.	2r	.
.	.	.	.	.	.	2f#i	.	1dd	in-
[1G	-ne	.	.	[1G	-ne	[1g	-ne	.	.
.	.	.	.	.	.	.	.	2dd	-cli-
=35	=35	=35	=35	=35	=35	=35	=35	=35	=35
1G]	.	2r	.	1G]	.	1g]	.	2ee	-na
.	.	1g	in-	.	.	.	.	2dd	ad
1r	.	.	.	1r	.	1r	.	4b	me
.	.	.	.	.	.	.	.	4cc	.
.	.	2g	-cli-	.	.	.	.	4dd	.
.	.	.	.	.	.	.	.	4b	.
=36	=36	=36	=36	=36	=36	=36	=36	=36	=36
0r	.	2a	-na	0r	.	2r	.	2cc	au-
.	.	2g	ad	.	.	1g	in-	2dd	-rem
.	.	1e	me	.	.	.	.	1ee	tu-
.	.	.	.	.	.	2g	-cli-	.	.
=37	=37	=37	=37	=37	=37	=37	=37	=37	=37
0r	.	2f	au-	2r	.	2a	-na	0dd	-am,
.	.	2g	-rem	1d	in-	1g	ad	.	.
.	.	1a	tu-	.	.	.	.	.	.
.	.	.	.	2d	-cli-	2f#i	.	.	.
=38	=38	=38	=38	=38	=38	=38	=38	=38	=38
2r	.	0g	-am,	2e	-na	1g	me,	0r	.
1G	in-	.	.	2d	ad	.	.	.	.
.	.	.	.	4B	me	1r	.	.	.
.	.	.	.	4c	.	.	.	.	.
2G	-cli-	.	.	4d	.	.	.	.	.
.	.	.	.	4B	.	.	.	.	.
=39	=39	=39	=39	=39	=39	=39	=39	=39	=39
2A	-na	2r	.	2c	au-	0r	.	0r	.
2G	ad	1g	ad	2d	-rem	.	.	.	.
4E	me	.	.	1e	tu-	.	.	.	.
4F	.	.	.	.	.	.	.	.	.
4G	.	2g	me	.	.	.	.	.	.
4E	.	.	.	.	.	.	.	.	.
=40	=40	=40	=40	=40	=40	=40	=40	=40	=40
2F	au-	2a	au-	1d	-am,	0r	.	2r	.
2G	-rem	2g	-rem	.	.	.	.	2dd	in-
1A	tu-	2e	tu-	1r	.	.	.	2cc	-cli-
.	.	2f	.	.	.	.	.	2a	-na
=41	=41	=41	=41	=41	=41	=41	=41	=41	=41
0E	-am,	0g	-am,	2r	.	2r	.	2b	ad
.	.	.	.	1G	au-	1dd	in-	1b	me
.	.	.	.	2G	-rem	2dd	-cli-	[2g	.
=42	=42	=42	=42	=42	=42	=42	=42	=42	=42
0r	.	2r	.	2c	tu-	2ee	-na	4g]	.
.	.	.	.	.	.	.	.	4a	.
.	.	1g	in-	2B	.	2dd	ad	4b	.
.	.	.	.	.	.	.	.	4cc	.
.	.	.	.	1G	-am,	4b	me	1dd	.
.	.	.	.	.	.	4cc	.	.	.
.	.	2g	-cli-	.	.	4dd	.	.	.
.	.	.	.	.	.	4b	.	.	.
=43	=43	=43	=43	=43	=43	=43	=43	=43	=43
0r	.	2a	-na	0r	.	2cc	au-	2r	.
.	.	2g	ad	.	.	2dd	-rem	1g	au-
.	.	1e	me	.	.	1ee	tu-	.	.
.	.	.	.	.	.	.	.	2g	-rem
=44	=44	=44	=44	=44	=44	=44	=44	=44	=44
0r	.	2f	au-	2r	.	0dd	-am	2a	tu-
.	.	2g	-rem	1d	in-	.	.	1g	.
.	.	1a	tu-	.	.	.	.	.	.
.	.	.	.	2d	-cli-	.	.	2f#i	.
=45	=45	=45	=45	=45	=45	=45	=45	=45	=45
2r	.	1g	-am,	2e	-na	0r	.	0g	-am
1G	in-	.	.	2d	ad	.	.	.	.
.	.	1r	.	4B	me	.	.	.	.
.	.	.	.	4c	.	.	.	.	.
2G	-cli-	.	.	4d	.	.	.	.	.
.	.	.	.	4B	.	.	.	.	.
=46	=46	=46	=46	=46	=46	=46	=46	=46	=46
2A	-na	2r	.	2c	au-	0r	.	0r	.
2G	ad	1g	in-	2d	-rem	.	.	.	.
1E	me	.	.	1e	tu-	.	.	.	.
.	.	2g	-cli-	.	.	.	.	.	.
=47	=47	=47	=47	=47	=47	=47	=47	=47	=47
2F	au-	2a	-na	1d	-am,	0r	.	0r	.
2G	.	2g	ad	.	.	.	.	.	.
1A	-rem	2e	me	2r	.	.	.	.	.
.	.	2f	au-	2c	au-	.	.	.	.
=48	=48	=48	=48	=48	=48	=48	=48	=48	=48
2G	tu-	2g	-rem	2e	-rem	1r	.	0r	.
2.F	.	2.a	tu-	2.d	tu-	.	.	.	.
.	.	.	.	.	.	2r	.	.	.
4E	.	4g	.	4G	.	.	.	.	.
2C	.	2e	.	[2c	.	2g	ac-	.	.
=49	=49	=49	=49	=49	=49	=49	=49	=49	=49
1D	.	1f	.	2c]	.	2dd	-ce-	1r	.
.	.	.	.	2B	.	2dd	-le-	.	.
1C	-am	1e	-am	2c	-am	1ee	-ra	2r	.
.	.	.	.	2G	ac-	.	.	2g	ac-
=50	=50	=50	=50	=50	=50	=50	=50	=50	=50
1r	.	0r	.	2d	-ce-	2dd	ut	2g	-ce-
.	.	.	.	2d	-le-	2ff	e-	2f	-le-
2r	.	.	.	1e	-ra	2ee	-ru-	2.g	-ra
2C	ac-	.	.	.	.	2cc	.	.	.
.	.	.	.	.	.	.	.	4a	.
=51	=51	=51	=51	=51	=51	=51	=51	=51	=51
2G	-ce-	1r	.	2d	ut	1dd	-as	2b	.
2F	-le-	.	.	2f	e-	.	.	2.a	ut
1A	-ra	2r	.	2e	-ru-	1cc	me,	.	.
.	.	.	.	.	.	.	.	4b	.
.	.	2c	ac-	2c	.	.	.	4cc	.
.	.	.	.	.	.	.	.	4a	.
=52	=52	=52	=52	=52	=52	=52	=52	=52	=52
2G	ut	2g	-ce-	1d	-as	2r	.	4b	.
.	.	.	.	.	.	.	.	4cc	.
2B-i	e-	2f	-le-	.	.	2dd	ut	4dd	.
.	.	.	.	.	.	.	.	4b	.
2A	-ru-	1a	-ra	1c	me,	2ee	e-	2cc	.
2F	.	.	.	.	.	2ff	-ru-	2a	.
=53	=53	=53	=53	=53	=53	=53	=53	=53	=53
1G	-as	2g	ut	0r	.	1dd	-as	2b	e-
.	.	2b-i	e-	.	.	.	.	1g	-ru-
[1C	me,	2.a	-ru-	.	.	[1cc	me	.	.
.	.	.	.	.	.	.	.	[2f	.
.	.	8gL	.	.	.	.	.	.	.
.	.	8fJ	.	.	.	.	.	.	.
=54	=54	=54	=54	=54	=54	=54	=54	=54	=54
1C]	.	1g	-as	2r	.	1cc]	.	2f]	.
.	.	.	.	2G	ac-	.	.	2e	-as
1r	.	2.f	me,	2d	-ce-	1r	.	2f	me,
.	.	.	.	2d	-le-	.	.	2ff	ut
.	.	8eL	.	.	.	.	.	.	.
.	.	8dJ	.	.	.	.	.	.	.
=55	=55	=55	=55	=55	=55	=55	=55	=55	=55
2r	.	1c	.	1e	-ra	0r	.	2ee	e-
2C	ut	.	.	.	.	.	.	2cc	.
2G	e-	2r	.	2d	ut	.	.	1dd	.
2F	-ru-	[2c	ut	2f	e-	.	.	.	.
=56	=56	=56	=56	=56	=56	=56	=56	=56	=56
1A	-as	4c]	.	2e	-ru-	0r	.	2cc	.
.	.	4d	.	.	.	.	.	.	.
.	.	4e	.	2c	.	.	.	1cc	-ru-
.	.	4f	.	.	.	.	.	.	.
1G	me	1g	e-	1d	-as	.	.	.	.
.	.	.	.	.	.	.	.	2b	.
=57	=57	=57	=57	=57	=57	=57	=57	=57	=57
2r	.	2g	-ru-	0c	me.	2r	.	1cc	-as
2.C	es-	2e	-as	.	.	2cc	es-	.	.
.	.	1e	me	.	.	2ee	-to	2.g	me
4D	.	.	.	.	.	.	.	.	.
4E	.	.	.	.	.	2ee	mi-	.	.
4F	.	.	.	.	.	.	.	4a	.
=58	=58	=58	=58	=58	=58	=58	=58	=58	=58
2G	-to	2r	.	1r	.	2dd	-hi	2b	.
2.F	mi-	2f	es-	.	.	2a	in	2cc	.
.	.	2a	-to	2r	.	1cc	de-	1a	.
4G	.	.	.	.	.	.	.	.	.
2A	.	2a	mi-	2c	Es-	.	.	.	.
=59	=59	=59	=59	=59	=59	=59	=59	=59	=59
1E	-hi,	2g	-hi	2e	-to	2b	.	1g	.
.	.	2e	in	2e	mi-	2g	.	.	.
1r	.	1f	de-	2d	-hi	1a	.	2r	.
.	.	.	.	2A	in	.	.	2cc	e-
=60	=60	=60	=60	=60	=60	=60	=60	=60	=60
0r	.	2e	-um	1c	de-	0g	-um	2ee	-sto
.	.	2c	pro-	.	.	.	.	2ee	mi-
.	.	1d	-te-	2B	.	.	.	2dd	-hi
.	.	.	.	2G	.	.	.	2b	in
=61	=61	=61	=61	=61	=61	=61	=61	=61	=61
2r	.	2c	.	1A	.	0r	.	1cc	de-
2C	es-	2.e	-to-	.	.	.	.	.	.
2E	-to	.	.	1G	-um,	.	.	2b	.
.	.	4d	.	.	.	.	.	.	.
2E	mi-	[2g	.	.	.	.	.	2g	.
=62	=62	=62	=62	=62	=62	=62	=62	=62	=62
1D	-hi	2g]	.	2r	.	2r	.	1a	.
.	.	2f#i	.	2d	in	2dd	pro-	.	.
1r	.	2g	-rem,	2e	de-	2b	-tec-	1g	-um
.	.	2c	pro-	[2g	-um	2cc	.	.	.
=63	=63	=63	=63	=63	=63	=63	=63	=63	=63
2r	.	2d	-tec-	2g]	.	2.a	-to-	2r	.
2F	in	4A	-to-	2f	.	.	.	1cc	pro-
.	.	4B	.	.	.	4b	.	.	.
1A	de-	4c	.	2e	pro-	1cc	-rem	.	.
.	.	4d	.	.	.	.	.	.	.
.	.	4e	.	2c	-tec-	.	.	2cc	-tec-
.	.	4f	.	.	.	.	.	.	.
=64	=64	=64	=64	=64	=64	=64	=64	=64	=64
2G	-um	2g	-rem,	1d	-to-	0r	.	2b	-to-
2D	pro-	2.f	pro-	.	.	.	.	1a	.
1F	-tec-	.	.	2c	.	.	.	.	.
.	.	4e	.	.	.	.	.	.	.
.	.	2c	-tec-	2A	.	.	.	4g	.
.	.	.	.	.	.	.	.	4f	.
=65	=65	=65	=65	=65	=65	=65	=65	=65	=65
2E	.	1e	-to-	2B	.	2r	.	1g	-rem,
2C	.	.	.	2c	.	1g	et	.	.
1D	-to-	2d	.	1A	-rem,	.	.	1dd	pro-
.	.	2A	-rem	.	.	2f	in	.	.
=66	=66	=66	=66	=66	=66	=66	=66	=66	=66
1C	-rem	1c	et	2r	.	2.g	lo-	2ee	-tec-
.	.	.	.	2e	pro-	.	.	2cc	.
.	.	.	.	.	.	8fL	.	.	.
.	.	.	.	.	.	8eJ	.	.	.
1r	.	2B	in	2f	-tec-	2d	-cum	2dd	-to-
.	.	2G	lo-	2g	.	[2dd	re-	2b	.
=67	=67	=67	=67	=67	=67	=67	=67	=67	=67
1r	.	1A	-cum	1e	-to-	2dd]	.	1a	-rem
.	.	.	.	.	.	2cc	.	.	.
2r	.	2B	re-	1d	-rem	2dd	-fu-	2r	.
[2G	lo-	2G	.	.	.	2b	-gi-	[2dd	et
=68	=68	=68	=68	=68	=68	=68	=68	=68	=68
2G]	.	1.d	-fu-	2r	.	1a	-i	4dd]	.
.	.	.	.	.	.	.	.	4ee	in
2F	-cum	.	.	2A	et	.	.	2ff	lo-
2G	re-	.	.	2B	in	2r	.	2dd	-cum
2E	-fu-	2c	.	2c	lo-	[2g	ut	2ee	re-
=69	=69	=69	=69	=69	=69	=69	=69	=69	=69
1D	-gi-	1d	-gi-	2.A	-cum	2g]	.	1ff	-fu-
.	.	.	.	.	.	2f	.	.	.
.	.	.	.	4B	re-	.	.	.	.
1C	-i	2G	-i,	1c	-fu-	1g	sal-	[1ee	.
.	.	[2g	et	.	.	.	.	.	.
=70	=70	=70	=70	=70	=70	=70	=70	=70	=70
2r	.	2g]	.	1A	-gi-	1a	-vum	2ee]	.
1c	ut	2f	in	.	.	.	.	4dd	.
.	.	.	.	.	.	.	.	4cc	.
.	.	2.g	lo-	1G	-i	2d	me,	1dd	-gi-
2B	sal-	.	.	.	.	2dd	ut	.	.
.	.	4f	.	.	.	.	.	.	.
=71	=71	=71	=71	=71	=71	=71	=71	=71	=71
2c	-vum	4e	-cum	0r	.	2ee	sal-	1g	-i
.	.	4d	.	.	.	.	.	.	.
2G	me	2.g	re-	.	.	1dd	-vum	.	.
2B	fa-	.	.	.	.	.	.	2r	.
.	.	4f	.	.	.	.	.	.	.
2c	-ci-	2e	-fu-	.	.	2cc	.	[2cc	ut
=72	=72	=72	=72	=72	=72	=72	=72	=72	=72
1G	-as,	1d	-gi-	0r	.	1dd	.	2cc]	.
.	.	.	.	.	.	.	.	2b	sal-
1r	.	2.c	-i	.	.	1ee	me	2cc	-vum
.	.	.	.	.	.	.	.	2g	me
.	.	4B	.	.	.	.	.	.	.
=73	=73	=73	=73	=73	=73	=73	=73	=73	=73
2r	.	2G	.	0r	.	2dd	fa-	2b	fa-
1c	ut	1g	ut	.	.	2.ee	-ci-	2cc	.
.	.	.	.	.	.	.	.	2g	.
.	.	.	.	.	.	8ddL	.	.	.
.	.	.	.	.	.	8ccJ	.	.	.
2B	sal-	2g	sal-	.	.	2dd	.	2dd	.
=74	=74	=74	=74	=74	=74	=74	=74	=74	=74
2c	-vum	2e	-vum	0r	.	1g	-as,	2ee	.
2G	me	2g	me	.	.	.	.	1dd	.
2B	fa-	2f	fa-	.	.	2r	.	.	.
2c	-ci-	2e	.	.	.	[2g	ut	[2cc	.
=75	=75	=75	=75	=75	=75	=75	=75	=75	=75
1G	-as,	1d	-ci-	2r	.	2g]	.	2cc]	.
.	.	.	.	2G	ut	2g	sal-	2b	-ci-
1r	.	2c	-as,	2A	sal-	2e	-vum	[1ccl	-as.
.	.	[2f	ut	2F	-vum	2f	me	.	.
=76	=76	=76	=76	=76	=76	=76	=76	=76	=76
0r	.	2f]	.	1c	me	1g	fa-	0cc_	.
.	.	2e	sal-	.	.	.	.	.	.
.	.	2f	-vum	4F	fa-	1a	-ci-	.	.
.	.	.	.	4G	.	.	.	.	.
.	.	2c	me	4A	.	.	.	.	.
.	.	.	.	4B	.	.	.	.	.
=77	=77	=77	=77	=77	=77	=77	=77	=77	=77
2r	.	2e	fa-	2c	.	2g	.	1cc_	.
[2F	ut	2f	.	2A	-ci-	2f	.	.	.
=78	=78	=78	=78	=78	=78	=78	=78	=78	=78
2F]	.	2c	.	1G	-as,	1g	.	0cc_	.
2E	sal-	2g	.	.	.	.	.	.	.
2F	-vum	2a	.	2r	.	1c	-as,	.	.
2C	me	[2g	.	[2c	me	.	.	.	.
=79	=79	=79	=79	=79	=79	=79	=79	=79	=79
2E	fa-	4g]	.	2c]	.	2r	.	0cc_	.
.	.	4f	.	.	.	.	.	.	.
2F	-ci-	1f	-ci-	2A	fa-	1cc	ut	.	.
[1Cl	-as.	.	.	1c	-ci-	.	.	.	.
.	.	4e	.	.	.	2cc	sal-	.	.
.	.	4d	.	.	.	.	.	.	.
=80	=80	=80	=80	=80	=80	=80	=80	=80	=80
0C_	.	[0el	-as.	[0Gl	-as.	2cc	-vum	0cc_	.
.	.	.	.	.	.	2g	me	.	.
.	.	.	.	.	.	2.cc	fa-	.	.
.	.	.	.	.	.	4dd	-ci-	.	.
=81	=81	=81	=81	=81	=81	=81	=81	=81	=81
00C]	.	00e]	.	00G]	.	00ee	-as.	00cc]	.
=82||	=82||	=82||	=82||	=82||	=82||	=82||	=82||	=82||	=82||
*M2/1	*	*M2/1	*	*M2/1	*	*M2/1	*	*M2/1	*
*met(C|)	*	*met(C|)	*	*met(C|)	*	*met(C|)	*	*met(C|)	*
!!section: Secunda pars: Quoniam fortitudo
!!!OMD: Secunda pars: Quoniam fortitudo
0r	.	0r	.	0r	.	0r	.	1.g	Quo-
.	.	.	.	.	.	.	.	2g	-ni-
=83	=83	=83	=83	=83	=83	=83	=83	=83	=83
0r	.	0r	.	0r	.	0r	.	2a	-am
.	.	.	.	.	.	.	.	2g	for-
.	.	.	.	.	.	.	.	2cc	-ti-
.	.	.	.	.	.	.	.	2dd	-tu-
=84	=84	=84	=84	=84	=84	=84	=84	=84	=84
0r	.	1.c	Quo-	0r	.	0r	.	1.ee	-do
.	.	2c	-ni-	.	.	.	.	4dd	.
.	.	.	.	.	.	.	.	4cc	.
=85	=85	=85	=85	=85	=85	=85	=85	=85	=85
0r	.	2d	-am	0r	.	0r	.	2b	.
.	.	2c	for-	.	.	.	.	1cc	me-
.	.	2f	-ti-	.	.	.	.	.	.
.	.	2g	-tu-	.	.	.	.	2b	.
=86	=86	=86	=86	=86	=86	=86	=86	=86	=86
0r	.	1.a	-do	0r	.	0r	.	1cc	-a
.	.	.	.	.	.	.	.	[1ee	et
.	.	4g	.	.	.	.	.	.	.
.	.	4f	.	.	.	.	.	.	.
=87	=87	=87	=87	=87	=87	=87	=87	=87	=87
0r	.	2e	.	0r	.	0r	.	2ee]	.
.	.	1f	me-	.	.	.	.	2cc	re-
.	.	.	.	.	.	.	.	2dd	-fu-
.	.	2e	.	.	.	.	.	2ee	-gi-
=88	=88	=88	=88	=88	=88	=88	=88	=88	=88
0r	.	1f	-a	0r	.	0r	.	2a	-um
.	.	.	.	.	.	.	.	1ff	me-
.	.	[1a	et	.	.	.	.	.	.
.	.	.	.	.	.	.	.	4ee	.
.	.	.	.	.	.	.	.	4dd	.
=89	=89	=89	=89	=89	=89	=89	=89	=89	=89
0r	.	2a]	.	0r	.	0r	.	2cc	.
.	.	2f	re-	.	.	.	.	1dd	.
.	.	2g	-fu-	.	.	.	.	.	.
.	.	2a	-gi-	.	.	.	.	2cc	.
=90	=90	=90	=90	=90	=90	=90	=90	=90	=90
0r	.	2d	-um	1.G	Quo-	0r	.	2b	-um
.	.	1b-i	me-	.	.	.	.	1dd	es
.	.	4a	.	2G	-ni-	.	.	4cc	.
.	.	4g	.	.	.	.	.	4b	.
=91	=91	=91	=91	=91	=91	=91	=91	=91	=91
0r	.	2f	.	2A	-am	0r	.	2cc	.
.	.	1g	.	2G	for-	.	.	2b	.
.	.	.	.	2c	-ti-	.	.	1a	.
.	.	2f	.	2d	-tu-	.	.	.	.
=92	=92	=92	=92	=92	=92	=92	=92	=92	=92
1.C	Quo-	2e	-um	1.e	-do	0r	.	1g	tu
.	.	1g	es	.	.	.	.	.	.
.	.	.	.	.	.	.	.	1r	.
2C	-ni-	4f	.	4d	.	.	.	.	.
.	.	4e	.	4c	.	.	.	.	.
=93	=93	=93	=93	=93	=93	=93	=93	=93	=93
2D	-am	2f	.	2B	me-	0r	.	0r	.
2C	for-	2e	.	1c	.	.	.	.	.
2F	-ti-	1d	.	.	.	.	.	.	.
2G	-tu-	.	.	2B	.	.	.	.	.
=94	=94	=94	=94	=94	=94	=94	=94	=94	=94
1.A	-do	1c	tu	1c	-a	0r	.	0r	.
.	.	1r	.	[1e	et	.	.	.	.
4G	.	.	.	.	.	.	.	.	.
4F	.	.	.	.	.	.	.	.	.
=95	=95	=95	=95	=95	=95	=95	=95	=95	=95
2E	me-	0r	.	2e]	.	0r	.	0r	.
1F	.	.	.	2c	re-	.	.	.	.
.	.	.	.	2d	-fu-	.	.	.	.
2E	.	.	.	2e	-gi-	.	.	.	.
=96	=96	=96	=96	=96	=96	=96	=96	=96	=96
1F	-a	0r	.	2A	-um	0r	.	0r	.
.	.	.	.	1f	me-	.	.	.	.
[1A	et	.	.	.	.	.	.	.	.
.	.	.	.	4e	.	.	.	.	.
.	.	.	.	4d	.	.	.	.	.
=97	=97	=97	=97	=97	=97	=97	=97	=97	=97
2A]	.	0r	.	2c	-um	0r	.	0r	.
2F	re-	.	.	1d	es	.	.	.	.
2G	-fu-	.	.	.	.	.	.	.	.
2A	-gi-	.	.	2c	tu,	.	.	.	.
=98	=98	=98	=98	=98	=98	=98	=98	=98	=98
2D	-um	0r	.	2B	et	0r	.	0r	.
1B-i	me-	.	.	1d	re-	.	.	.	.
4A	.	.	.	4c	.	.	.	.	.
4G	.	.	.	4B	.	.	.	.	.
=99	=99	=99	=99	=99	=99	=99	=99	=99	=99
2F	.	1r	.	2c	-fu-	0r	.	0r	.
1G	.	.	.	2B	-gi-	.	.	.	.
.	.	2r	.	1A	-um	.	.	.	.
2F	.	2c	et	.	.	.	.	.	.
=100	=100	=100	=100	=100	=100	=100	=100	=100	=100
2E	.	1.g	prop-	4G	me-	0r	.	0r	.
.	.	.	.	4A	.	.	.	.	.
1G	.	.	.	4B	.	.	.	.	.
.	.	.	.	4c	.	.	.	.	.
.	.	.	.	4d	.	.	.	.	.
.	.	.	.	4e	.	.	.	.	.
4F	.	2g	-ter	[2d	.	.	.	.	.
4E	.	.	.	.	.	.	.	.	.
=101	=101	=101	=101	=101	=101	=101	=101	=101	=101
2F	.	2a	no-	2d]	.	2r	.	0r	.
2E	-um	2g	-men	1c	-um	2g	Et	.	.
1D	es	1f	tu-	.	.	2dd	prop-	.	.
.	.	.	.	2B	es	2dd	-ter	.	.
=102	=102	=102	=102	=102	=102	=102	=102	=102	=102
1C	tu	2e	-tum	1c	tu	2.ee	no-	0r	.
.	.	4c	de-	.	.	.	.	.	.
.	.	4d	.	.	.	4dd	-men	.	.
1r	.	4e	.	2r	.	2cc	tu-	.	.
.	.	4f	.	.	.	.	.	.	.
.	.	[2g	-du-	2G	et	2b	.	.	.
=103	=103	=103	=103	=103	=103	=103	=103	=103	=103
0r	.	2g]	.	2d	prop-	1a	.	0r	.
.	.	2f#i	.	2d	-ter	.	.	.	.
.	.	2g	-ces	2.e	no-	[1g	-um	.	.
.	.	2c	.	.	.	.	.	.	.
.	.	.	.	4d	-men	.	.	.	.
=104	=104	=104	=104	=104	=104	=104	=104	=104	=104
0r	.	1e	.	1c	tu-	1g]	.	2r	.
.	.	.	.	.	.	.	.	2g	et
.	.	2d	me	2B	-um,	1r	.	2dd	prop-
.	.	[2g	et	2G	et	.	.	2dd	-ter
=105	=105	=105	=105	=105	=105	=105	=105	=105	=105
0r	.	2g]	.	2.c	prop-	1r	.	2.ee	no-
.	.	2e	e-	.	.	.	.	.	.
.	.	.	.	4B	-ter	.	.	4dd	-men
.	.	2f	-nu-	2A	no-	2r	.	2cc	tu-
.	.	[2g	-tri-	2G	-men	[2dd	de-	2b	.
=106	=106	=106	=106	=106	=106	=106	=106	=106	=106
1r	.	2g]	.	1d	tu-	4dd]	.	1a	.
.	.	.	.	.	.	4ee	.	.	.
.	.	2f	.	.	.	2ff	-du-	.	.
2r	.	2.g	-es	2G	-um	2ee	-ces	1g	-um
[2G	e-	.	.	[2d	de-	[2dd	me	.	.
.	.	4a	.	.	.	.	.	.	.
=107	=107	=107	=107	=107	=107	=107	=107	=107	=107
2G]	.	2b-i	.	4d]	.	4dd]	.	0r	.
.	.	.	.	4e	.	4cc	.	.	.
2F	-du-	1a	.	2f	-du-	2a	.	.	.
1G	-ces	.	.	2e	-ces	1b	.	.	.
.	.	2g	.	[2d	me	.	.	.	.
=108	=108	=108	=108	=108	=108	=108	=108	=108	=108
1D	me	2.f	.	4d]	.	2a	e-	0r	.
.	.	.	.	4c	.	.	.	.	.
.	.	.	.	2A	.	1dd	-nu-	.	.
.	.	4e	.	.	.	.	.	.	.
2r	.	1d	me,	2B	.	.	.	.	.
[2G	de	.	.	2G	et	2dd	-tri-	.	.
=109	=109	=109	=109	=109	=109	=109	=109	=109	=109
4G]	.	1r	.	2.d	e-	1dd	-es	1r	.
4A	.	.	.	.	.	.	.	.	.
2B	la-	.	.	.	.	.	.	.	.
.	.	.	.	4e	-nu-	.	.	.	.
2A	-que-	2r	.	2f	-tri-	2cc	.	2r	.
[2G	-o,	[2g	et	2g	-es	2b	.	[2dd	e-
=110	=110	=110	=110	=110	=110	=110	=110	=110	=110
4G]	.	2g]	.	1d	me,	1a	me	4dd]	.
4F	e-	.	.	.	.	.	.	4ee	.
2D	-du-	2f	e-	.	.	.	.	2ff	-nu-
2E	-ces	2g	-nu-	2r	.	1r	.	2ee	-tri-
2F	me	2a	-tri-	2f	et	.	.	[2dd	-es
=111	=111	=111	=111	=111	=111	=111	=111	=111	=111
2G	de	2g	-es	2e	e-	0r	.	2dd]	.
2A	la-	2f	.	2c	-nu-	.	.	1cc	.
1G	-que-	1g	.	2d	-tri-	.	.	.	.
.	.	.	.	2d	-es	.	.	2b	.
=112	=112	=112	=112	=112	=112	=112	=112	=112	=112
[0C	-o,	[0e	me	1c	me	2r	.	0cc	me
.	.	.	.	.	.	2g	e-	.	.
.	.	.	.	2r	.	2g	-do-	.	.
.	.	.	.	2G	e-	2g	-ces	.	.
=113	=113	=113	=113	=113	=113	=113	=113	=113	=113
0C]	.	0e]	.	2G	-du-	2.cc	me	1r	.
.	.	.	.	2G	-ces	.	.	.	.
.	.	.	.	.	.	4dd	.	.	.
.	.	.	.	1c	me	1ee	.	2r	.
.	.	.	.	.	.	.	.	2g	e-
=114	=114	=114	=114	=114	=114	=114	=114	=114	=114
0r	.	2r	.	2.c	de	2r	.	2g	-du-
.	.	2c	e-	.	.	2ee	de	2g	-ces
.	.	.	.	4B	.	.	.	.	.
.	.	2c	-du-	1A	la-	2ee	la-	[1cc	me
.	.	2c	-ces	.	.	2cc	-que-	.	.
=115	=115	=115	=115	=115	=115	=115	=115	=115	=115
0r	.	1.g	me	1G	-que-	2ee	-o	2cc]	.
.	.	.	.	.	.	2.dd	ve-	2b	de
.	.	.	.	1d	-o,	.	.	2a	la-
.	.	.	.	.	.	4cc	.	.	.
.	.	2f	de	.	.	2a	-nan-	2a	-que-
=116	=116	=116	=116	=116	=116	=116	=116	=116	=116
1r	.	1e	la-	2r	.	2.b	-ti-	[0g	-o,
.	.	.	.	2G	e-	.	.	.	.
.	.	.	.	.	.	4cc	.	.	.
2r	.	2d	.	2G	-du-	2dd	.	.	.
2C	e-	[2g	-que-	2G	-ces	[2ee	.	.	.
=117	=117	=117	=117	=117	=117	=117	=117	=117	=117
2C	-du-	4g]	.	1c	me	2ee]	.	1g]	.
.	.	4f	.	.	.	.	.	.	.
2C	-ces	4e	.	.	.	2cc	-um,	.	.
.	.	4d	.	.	.	.	.	.	.
[1F	me	4c	.	2.c	de	2r	.	1r	.
.	.	4B	.	.	.	.	.	.	.
.	.	4A	.	.	.	2cc	de-	.	.
.	.	4G	.	4B	.	.	.	.	.
=118	=118	=118	=118	=118	=118	=118	=118	=118	=118
2F]	.	2A	.	2A	la-	2cc	-du-	0r	.
2E	de	1c	.	1G	.	2cc	-ces	.	.
2D	la-	.	.	.	.	[1ff	me	.	.
2D	-que-	2B	.	2F	-que-	.	.	.	.
=119	=119	=119	=119	=119	=119	=119	=119	=119	=119
1C	-o	1c	-o,	0G	-o,	2ff]	.	2r	.
.	.	.	.	.	.	2ee	de	1cc	de
1r	.	2r	.	.	.	2dd	la-	.	.
.	.	[2g	de	.	.	2dd	-que-	2b	la-
=120	=120	=120	=120	=120	=120	=120	=120	=120	=120
1r	.	2g]	.	0r	.	1cc	-o,	1a	-que-
.	.	2f	la-	.	.	.	.	.	.
1C	quem	1e	-que-	.	.	2r	.	[1g	-o,
.	.	.	.	.	.	[2cc	de	.	.
=121	=121	=121	=121	=121	=121	=121	=121	=121	=121
1G	abs-	1d	-o	2r	.	2cc]	.	1g]	.
.	.	.	.	1g	de	2b	la-	.	.
2C	-con-	1r	.	.	.	1a	-que-	1r	.
2D	-de-	.	.	2f	la-	.	.	.	.
=122	=122	=122	=122	=122	=122	=122	=122	=122	=122
2E	-runt	2r	.	1e	-que-	0g	-o	2r	.
2C	mi-	2g	quem	.	.	.	.	1cc	de
1G	-hi,	2g	abs-	1d	-o	.	.	.	.
.	.	2g	-con-	.	.	.	.	2b	.
=123	=123	=123	=123	=123	=123	=123	=123	=123	=123
1r	.	2e	-de-	2r	.	0r	.	2g	la-
.	.	2.f	.	2d	quem	.	.	1a	-que-
2r	.	.	.	2d	abs-	.	.	.	.
.	.	4e	.	.	.	.	.	.	.
2G	quem	4d	.	2d	-con-	.	.	2b	.
.	.	4c	.	.	.	.	.	.	.
=124	=124	=124	=124	=124	=124	=124	=124	=124	=124
2G	abs-	2d	.	2B	-de-	0r	.	1g	-o
2C	-con-	2e	.	1c	-runt	.	.	.	.
2F	-de-	2f	.	.	.	.	.	1r	.
2G	-runt	2d	-runt	2B	.	.	.	.	.
=125	=125	=125	=125	=125	=125	=125	=125	=125	=125
2C	mi-	2e	mi-	2A	mi-	0r	.	1r	.
2E	.	1g	.	2G	.	.	.	.	.
1D	-hi	.	.	1A	.	.	.	2r	.
.	.	2f#i	.	.	.	.	.	2dd	quem
=126	=126	=126	=126	=126	=126	=126	=126	=126	=126
0r	.	2g	-hi,	1G	-hi,	2r	.	2dd	abs-
.	.	2d	quem	.	.	2g	quem	2dd	-con-
.	.	2e	abs-	1r	.	2g	abs-	2b	-de-
.	.	2c	-con-	.	.	2g	-con-	[2cc	-runt
=127	=127	=127	=127	=127	=127	=127	=127	=127	=127
0r	.	1f	-de-	2r	.	2a	-de-	4cc]	.
.	.	.	.	.	.	.	.	4b	.
.	.	.	.	2d	quem	2d	-runt	4a	.
.	.	.	.	.	.	.	.	4g	.
.	.	2d	-runt	2d	abs-	1dd	mi-	2a	.
.	.	[2g	mi-	2G	-con-	.	.	2b	.
=128	=128	=128	=128	=128	=128	=128	=128	=128	=128
0r	.	2g]	.	2c	-de-	2ee	.	2cc	.
.	.	2f	.	2d	-runt	1dd	.	2a	.
.	.	2e	.	2G	mi-	.	.	4b	.
.	.	.	.	.	.	.	.	4a	.
.	.	2d	.	2B	.	2g	.	[2dd	mi-
=129	=129	=129	=129	=129	=129	=129	=129	=129	=129
1r	.	1e	-hi	1A	-hi	1a	-hi	2dd]	.
.	.	.	.	.	.	.	.	2cc#i	.
[1G	quo-	2r	.	1r	.	1r	.	1dd	-hi
.	.	[2d	quo-	.	.	.	.	.	.
=130	=130	=130	=130	=130	=130	=130	=130	=130	=130
2G]	.	2d]	.	1.B	quo-	1r	.	1r	.
2G	-ni-	2d	-ni-	.	.	.	.	.	.
1G	-am	1d	-am	.	.	[1g	quo-	[1dd	quo-
.	.	.	.	2G	-ni-	.	.	.	.
=131	=131	=131	=131	=131	=131	=131	=131	=131	=131
1r	.	2r	.	2G	-am	2g]	.	2dd]	.
.	.	2d	tu	2G	tu	2g	-ni-	2dd	-ni-
1G	tu	[1g	es	2d	es	1g	-am	1dd	-am
.	.	.	.	2d	pro-	.	.	.	.
=132	=132	=132	=132	=132	=132	=132	=132	=132	=132
1.c	es	2g]	.	2.e	-tec-	1r	.	0g	tu
.	.	2f	pro-	.	.	.	.	.	.
.	.	.	.	4d	.	.	.	.	.
.	.	2e	-tec-	4e	.	1g	tu	.	.
.	.	.	.	4f	.	.	.	.	.
2B	pro-	2d	.	[2g	-tor	.	.	.	.
=133	=133	=133	=133	=133	=133	=133	=133	=133	=133
1A	-tec-	2.c	-tor	2g]	.	1.cc	es	1a	es
.	.	.	.	2f#i	me-	.	.	.	.
.	.	4d	.	.	.	.	.	.	.
1G	-tor	2e	.	1g	-us,	.	.	2r	.
.	.	[2d	.	.	.	2b	pro-	[2dd	pro-
=134	=134	=134	=134	=134	=134	=134	=134	=134	=134
1.F	me-	4d]	.	1r	.	2.a	-tec-	2dd]	.
.	.	4c	.	.	.	.	.	.	.
.	.	2.A	me-	.	.	.	.	2cc	.
.	.	.	.	.	.	4g	.	.	.
.	.	.	.	2r	.	2a	-tor	2dd	-tec-
.	.	4B	.	.	.	.	.	.	.
2E	.	2c	.	2G	pro-	[2g	me-	2ee	-tor
=135	=135	=135	=135	=135	=135	=135	=135	=135	=135
1D	.	1d	-us,	2A	-tec-	2g]	.	1ff	me-
.	.	.	.	2B	-tor	2f	.	.	.
[1C	-us	2.e	tu	2.c	me-	[1g	-us	[1ee	-us
.	.	4f	.	4B	.	.	.	.	.
=136	=136	=136	=136	=136	=136	=136	=136	=136	=136
0C]	.	2g	es	2G	-us	0g]	.	1ee]	.
.	.	2c	pro-	2g	in	.	.	.	.
.	.	2.e	-tec-	2g	ma-	.	.	2r	.
.	.	.	.	2g	-nus	.	.	2ee	in
.	.	4c	-tor	.	.	.	.	.	.
=137	=137	=137	=137	=137	=137	=137	=137	=137	=137
2r	.	2d	me-	2f	tu-	0r	.	2ff	ma-
2c	in	2c	-us	2g	-as	.	.	1ee	-nus
2c	ma-	2r	.	2.e	do-	.	.	.	.
2c	-nus	[2g	in	.	.	.	.	4dd	.
.	.	.	.	4f	-mi-	.	.	4cc	.
=138	=138	=138	=138	=138	=138	=138	=138	=138	=138
2B	tu-	2g]	.	1g	-ne,	0r	.	2dd	.
2c	-as	2g	ma-	.	.	.	.	1cc	tu-
2A	do-	2f	-nus	2r	.	.	.	.	.
2B	-mi-	2g	tu-	2g	in	.	.	2b	.
=139	=139	=139	=139	=139	=139	=139	=139	=139	=139
1c	-ne	1e	-as,	2g	ma-	2r	.	2g	-as
.	.	.	.	2g	-nus	2cc	in	2ee	do-
1r	.	2r	.	2f	tu-	2cc	ma-	2ff	.
.	.	2g	in	2c	-as	2cc	-nus	[2ee	-mi-
=140	=140	=140	=140	=140	=140	=140	=140	=140	=140
1r	.	2g	ma-	2e	do-	2b	tu-	2ee]	.
.	.	2g	-nus	2e	-mi-	2cc	-as	4dd	.
.	.	.	.	.	.	.	.	4cc	.
2r	.	2f	tu-	1d	-ne	2a	do-	1dd	-ne
2G	com-	2g	-as	.	.	2b	-mi-	.	.
=141	=141	=141	=141	=141	=141	=141	=141	=141	=141
2A	-men-	2.e	do-	2r	.	1cc	-ne	1r	.
1c	-do	.	.	2e	com-	.	.	.	.
.	.	4f	-mi-	.	.	.	.	.	.
.	.	1g	-ne	2e	-men-	1r	.	2r	.
2B	spi-	.	.	2d	-do	.	.	2g	com-
=142	=142	=142	=142	=142	=142	=142	=142	=142	=142
1A	-ri-	2r	.	2e	spi-	0r	.	2a	-men-
.	.	2c	com-	2f	-ri-	.	.	1cc	-do
1G	-tum	2d	-men-	1g	-tum,	.	.	.	.
.	.	2e	.	.	.	.	.	2b	spi-
=143	=143	=143	=143	=143	=143	=143	=143	=143	=143
2F	me-	2f	-do	2r	.	2r	.	2a	-ri-
2E	.	2r	.	2G	com-	2cc	com-	1g	-tum
1D	.	2r	.	2A	-men-	2dd	-men-	.	.
.	.	2d	spi-	2B	-do	[2ff	-do	2f	me-
=144	=144	=144	=144	=144	=144	=144	=144	=144	=144
1C	-um,	2e	-ri-	1c	spi-	2ff]	.	[0g	-um,
.	.	2.g	-tum	.	.	2ee	spi-	.	.
1r	.	.	.	2B	-ri-	2dd	-ri-	.	.
.	.	4f	.	.	.	.	.	.	.
.	.	2e	.	2c	.	[2cc	-tum	.	.
=145	=145	=145	=145	=145	=145	=145	=145	=145	=145
2r	.	1d	.	2G	-tum	2cc]	.	1g]	.
2G	com-	.	.	2g	me-	2b	me-	.	.
2A	-men-	2.c	me-	2f	.	1cc	-um,	1r	.
[2c	-do	.	.	[2e	.	.	.	.	.
.	.	8BL	.	.	.	.	.	.	.
.	.	8AJ	.	.	.	.	.	.	.
=146	=146	=146	=146	=146	=146	=146	=146	=146	=146
2c]	.	1G	-um,	2e]	.	0r	.	2r	.
2B	spi-	.	.	2d	.	.	.	2g	com-
1A	-ri-	2r	.	2e	.	.	.	2a	-men-
.	.	2c	com-	2f	.	.	.	[2cc	-do
=147	=147	=147	=147	=147	=147	=147	=147	=147	=147
1G	-tum	2d	-men-	1g	-um,	0r	.	2cc]	.
.	.	2e	.	.	.	.	.	2b	spi-
2F	me-	2f	-do	2r	.	.	.	2a	-ri-
2E	.	2G	spi-	2c	com-	.	.	[2g	-tum
=148	=148	=148	=148	=148	=148	=148	=148	=148	=148
1D	.	2A	-ri-	2d	-men-	1r	.	2g]	.
.	.	2B	.	1f	-do	.	.	2f#i	me-
1C	-um,	1c	-tum	.	.	2r	.	1g	-um
.	.	.	.	2e	spi-	2g	com-	.	.
=149	=149	=149	=149	=149	=149	=149	=149	=149	=149
2F	spi-	1r	.	2d	-ri-	2a	-men-	0r	.
2A	-ri-	.	.	2c	.	1cc	-do	.	.
1G	-tum	2r	.	1d	-tum	.	.	.	.
.	.	2d	me-	.	.	2b	spi-	.	.
=150	=150	=150	=150	=150	=150	=150	=150	=150	=150
2C	me-	2e	.	2c	me-	2a	-ri-	1r	.
2E	.	2c	.	2G	.	1g	-tum	.	.
1D	.	[1d	-um	1A	.	.	.	2r	.
.	.	.	.	.	.	2f#i	me-	[2dd	red-
=151	=151	=151	=151	=151	=151	=151	=151	=151	=151
0G	-um	1d]	.	[0G	-um	0g	-um	2dd]	.
.	.	.	.	.	.	.	.	2dd	-e-
.	.	2r	.	.	.	.	.	2ee	-mis-
.	.	[2g	red-	.	.	.	.	2dd	-ti
=152	=152	=152	=152	=152	=152	=152	=152	=152	=152
2r	.	2g]	.	1G]	.	0r	.	4b	me
.	.	.	.	.	.	.	.	4cc	.
2G	red-	2g	-e-	.	.	.	.	4dd	.
.	.	.	.	.	.	.	.	4b	.
2F	-e-	2a	-mis-	2r	.	.	.	2cc	do-
2G	-mis-	[2g	.	[2d	red-	.	.	2b	.
=153	=153	=153	=153	=153	=153	=153	=153	=153	=153
1D	-sti	2g]	.	2d]	.	1r	.	1a	-mi-
.	.	2f#i	-ti	2d	-e-	.	.	.	.
[1G	me	1g	me,	2e	-mis-	2r	.	[1g	-ne,
.	.	.	.	2d	-ti	[2dd	red-	.	.
=154	=154	=154	=154	=154	=154	=154	=154	=154	=154
1G]	.	2r	.	4B	me	2dd]	.	0g]	.
.	.	.	.	4c	.	.	.	.	.
.	.	2d	red-	4d	.	2b	-e-	.	.
.	.	.	.	4B	.	.	.	.	.
2r	.	2e	-e-	2c	do-	2ee	-mis-	.	.
2G	do-	2g	.	2B	.	[2dd	-ti	.	.
=155	=155	=155	=155	=155	=155	=155	=155	=155	=155
2A	-mi-	2f	-mis-	1A	-mi-	2dd]	.	1r	.
1c	-ne	2e	-ti	.	.	2cc	.	.	.
.	.	1d	me	2G	-ne,	1dd	me	2r	.
2B	de-	.	.	2d	red-	.	.	2g	do-
=156	=156	=156	=156	=156	=156	=156	=156	=156	=156
1A	-us,	2.c	do-	2e	-e-	0r	.	2a	.
.	.	.	.	2f	.	.	.	1cc	-mi-
.	.	4d	.	.	.	.	.	.	.
2r	.	2e	-mi-	1g	-mis-	.	.	.	.
2G	do-	2d	-ne	.	.	.	.	2b	.
=157	=157	=157	=157	=157	=157	=157	=157	=157	=157
2A	-mi-	2.c	de-	2f	-ti	0r	.	1a	-ne
1c	-ne	.	.	1e	me	.	.	.	.
.	.	8BL	.	.	.	.	.	.	.
.	.	8AJ	.	.	.	.	.	.	.
.	.	1G	-us,	.	.	.	.	2r	.
2B	de-	.	.	[2d	do-	.	.	2g	de-
=158	=158	=158	=158	=158	=158	=158	=158	=158	=158
1A	-us	1r	.	2d]	.	0r	.	2a	-us
.	.	.	.	2c	-mi-	.	.	2cc	ve-
2G	ve-	2r	.	1d	-ne,	.	.	2b	-ri-
2F	-ri-	2A	de-	.	.	.	.	[2a	-ta-
=159	=159	=159	=159	=159	=159	=159	=159	=159	=159
2G	-ta-	2B	-us	2r	.	0r	.	4a]	.
.	.	.	.	.	.	.	.	4g	.
2E	.	2G	ve-	2c	do-	.	.	1g	.
1D	.	2.A	-ri-	2d	-mi-	.	.	.	.
.	.	.	.	[2f	-ne	.	.	2f#i	.
.	.	4B	.	.	.	.	.	.	.
=160	=160	=160	=160	=160	=160	=160	=160	=160	=160
1C	-tis,	1c	-ta-	2f]	.	2r	.	2.g	-tis,
.	.	.	.	2e	de-	2cc	do-	.	.
.	.	.	.	.	.	.	.	4a	.
1r	.	2G	-tis,	1d	-us,	2dd	-mi-	2b	.
.	.	[2d	de-	.	.	[2ff	-ne	[2a	ve-
=161	=161	=161	=161	=161	=161	=161	=161	=161	=161
0r	.	2d]	.	2r	.	2ff]	.	4a]	.
.	.	.	.	.	.	.	.	4b	.
.	.	2e	-us	2c	do-	2ee	de-	2cc	.
.	.	2.f	ve-	2d	-mi-	1dd	-us,	2b	-ri-
.	.	.	.	[2f	-ne	.	.	[2a	-ta-
.	.	4g	-ri-	.	.	.	.	.	.
=162	=162	=162	=162	=162	=162	=162	=162	=162	=162
0r	.	2a	-ta-	2f]	.	2r	.	4a]	.
.	.	.	.	.	.	.	.	4b	.
.	.	1g	-tis,	2e	.	2cc	de-	2cc	.
.	.	.	.	1d	de-	2dd	-us	2b	.
.	.	2f	de-	.	.	2ff	ve-	[2a	.
=163	=163	=163	=163	=163	=163	=163	=163	=163	=163
0r	.	1g	-us	2c	-us	2ee	-ri-	2a]	.
.	.	.	.	2B	ve-	1dd	-ta-	1g	.
.	.	2e	ve-	2c	-ri-	.	.	.	.
.	.	2c	-ri-	2A	-ta-	[2cc	.	2f#i	.
=164	=164	=164	=164	=164	=164	=164	=164	=164	=164
2r	.	1d	-ta-	2G	-tis,	2cc]	.	1g	-tis,
2G	ve-	.	.	2g	ve-	2b	.	.	.
=165	=165	=165	=165	=165	=165	=165	=165	=165	=165
2A	-ri-	[0cl	-tis.	2f	-ri-	[0ccl	-tis.	2r	.
2.c	-ta-	.	.	2.e	-ta-	.	.	2g	ve-
.	.	.	.	.	.	.	.	2a	-ri-
4B	.	.	.	4d	.	.	.	.	.
4A	.	.	.	[2c	.	.	.	[2cc	-ta-
4G	.	.	.	.	.	.	.	.	.
=166	=166	=166	=166	=166	=166	=166	=166	=166	=166
2F	.	0c_	.	4c]	.	0cc_	.	4cc]	.
.	.	.	.	4B	.	.	.	4dd	.
2E	.	.	.	2G	.	.	.	2ee	.
1F	.	.	.	1A	.	.	.	2.cc	.
.	.	.	.	.	.	.	.	4dd	.
=167	=167	=167	=167	=167	=167	=167	=167	=167	=167
00Cl	-tis.	00c]	.	00Gl	-tis.	00cc]	.	00eel	-tis.
==	==	==	==	==	==	==	==	==	==
*-	*-	*-	*-	*-	*-	*-	*-	*-	*-
!!!system-decoration: [*]
!!!YEM: This work is licensed under a Creative Commons Attribution-NonCommercial 4.0 International License
!!!RDF**kern: i = editorial accidental
!!!RDF**kern: l = terminal long
!!!ENC: David Fiala and Vincent Besson
!!!END: 2025/3/14
!!!EED: Benjamin Ory
!!!EEV: 2025/11/13
!!!YEC: Copyright 2025 Citations: The Renaissance Imitation Mass Project, All Rights Reserved
!!!ONB: Translated from MusicXML on 2025/11/13
!!!verovio: header encoded
!!!header-left: Edited by @{ENC} (2025)\n Citations: The Renaissance Imitation Mass Project \n
!!!header-right:
!!!header-center: